X: 15716
T: Golden Slipper, The
R: reel
M: 4/4
K: Dmajor
D2 FE D2 F2|A2 dB A2 F2|B3 d G2 B2|A3 D C2 E2|D2 FE D2 F2|A2 dB A2 F2|
B3 d c2 A2|d6||de|f2 d2 e2 c2|d2 B2 c2 A2|B3 d G2 B2|A3 F E2|de|
f2 d2 e2 c2|d2 B2 c2 A2|B3 d c2 A2|d6||g3 f ef g2|f2 e2 d2 f2|e3 d cd e2|
d3 A F2 A2|g3 f ef g2|f2 e2 d2 A2|B3 d c2 A2|d4 d4||

